img/toolbar/func_multi_caustic.svg

<svg height="24" width="24" xmlns="http://www.w3.org/2000/svg" xmlns:xlink="http://www.w3.org/1999/xlink">
  <linearGradient id="a" gradientTransform="matrix(.2083332 0 0 .5833333 9.5 8.5)" gradientUnits="userSpaceOnUse" spreadMethod="pad" x1="12" x2="12" y1="0" y2="24">
    <stop offset="0" stop-color="#dbf6ff" stop-opacity=".545455"/>
    <stop offset="1" stop-color="#7ddcfd" stop-opacity=".676136"/>
  </linearGradient>
  <filter id="b" height="1.391745" width="1.172991" x="-.086495" y="-.195872">
    <feGaussianBlur stdDeviation=".81613532"/>
  </filter>
  <path d="m21.707792 22.434416c1.774156-4.795 1.78361-9.382208 0-13.4922084-6.687159 5.7332904-11.7990245 6.2320234-19.5714284 0-2.1363636 4.0577924-1.45675153 9.9026094-.1363636 13.4922084 7.9250382-5.598893 12.644429-5.262513 19.707792 0z" fill="#fc0" fill-rule="evenodd" stroke="#ff9c00"/>
  <path d="m22.227273 17c1.209279-3.358781 1.240348-6.864185 0-10-6.383588 4.149172-12.3472703 4.755667-20.5064938 0-1.6944077 2.4901257-1.38928389 7.441441-.5 10 8.2215776-4.469579 14.2001078-4.221015 21.0064938 0z" fill="#ffea93" fill-rule="evenodd" filter="url(#b)" transform="matrix(1 0 0 .6 0 8.592208)"/>
  <path d="m2.2571296 8c-1.99999986 5-1.99999986 10 0 15" fill="none" stroke="#454545" stroke-linecap="round" stroke-width="1.5"/>
  <text fill="#036" font-family="Times New Roman" font-size="13.063871" font-weight="bold" transform="scale(1.0521153 .9504662)" x=".443591" y="6.149367"><tspan x=".443591" y="6.149367">ω</tspan></text>
  <path d="m21.742869 8c2 5 2 10 0 15" fill="none" stroke="#454545" stroke-linecap="round" stroke-width="1.5"/>
  <path d="m9.5 8.5h5v14h-5z" fill="url(#a)" stroke="#00b4ff" stroke-linecap="round" stroke-opacity=".792929"/>
  <text fill="#036" font-family="Times New Roman" font-size="13.063871" font-weight="bold" transform="scale(1.0521153 .9504662)" x="12.79184" y="6.149367"><tspan x="12.79184" y="6.149367">ω</tspan></text>
</svg>

<?xml version="1.0" encoding="UTF-8" standalone="no"?>
<!-- Created with Inkscape (http://www.inkscape.org/) -->
<svg
   xmlns:dc="http://purl.org/dc/elements/1.1/"
   xmlns:cc="http://creativecommons.org/ns#"
   xmlns:rdf="http://www.w3.org/1999/02/22-rdf-syntax-ns#"
   xmlns:svg="http://www.w3.org/2000/svg"
   xmlns="http://www.w3.org/2000/svg"
   xmlns:xlink="http://www.w3.org/1999/xlink"
   xmlns:sodipodi="http://sodipodi.sourceforge.net/DTD/sodipodi-0.dtd"
   xmlns:inkscape="http://www.inkscape.org/namespaces/inkscape"
   width="24"
   height="24"
   id="svg2742"
   sodipodi:version="0.32"
   inkscape:version="0.46"
   version="1.0"
   sodipodi:docname="func_multi_caustic.svg"
   inkscape:output_extension="org.inkscape.output.svg.inkscape"
   inkscape:export-filename="D:\Projects\rezonator 1.5\img\func_multi_caustic_24.png"
   inkscape:export-xdpi="90"
   inkscape:export-ydpi="90">
  <defs
     id="defs2744">
    <linearGradient
       id="linearGradient3924">
      <stop
         id="stop3926"
         offset="0"
         style="stop-color:#dbf6ff;stop-opacity:0.54545456;" />
      <stop
         id="stop3928"
         offset="1"
         style="stop-color:#7ddcfd;stop-opacity:0.67613637;" />
    </linearGradient>
    <linearGradient
       inkscape:collect="always"
       xlink:href="#linearGradient3924"
       id="linearGradient3930"
       gradientUnits="userSpaceOnUse"
       gradientTransform="matrix(0.2083332,0,0,0.5833333,9.5000003,8.5000001)"
       spreadMethod="pad"
       x1="12"
       y1="0"
       x2="12"
       y2="24" />
    <linearGradient
       inkscape:collect="always"
       id="linearGradient7639">
      <stop
         style="stop-color:#ff9c00;stop-opacity:1;"
         offset="0"
         id="stop7641" />
      <stop
         style="stop-color:#ff9c00;stop-opacity:0;"
         offset="1"
         id="stop7643" />
    </linearGradient>
    <linearGradient
       id="linearGradient7627">
      <stop
         style="stop-color:#ffcc00;stop-opacity:1;"
         offset="0"
         id="stop7629" />
      <stop
         id="stop7635"
         offset="0.530303"
         style="stop-color:#ffea8e;stop-opacity:1;" />
      <stop
         style="stop-color:#ffcc00;stop-opacity:1;"
         offset="1"
         id="stop7631" />
    </linearGradient>
    <inkscape:perspective
       sodipodi:type="inkscape:persp3d"
       inkscape:vp_x="0 : 526.18109 : 1"
       inkscape:vp_y="0 : 1000 : 0"
       inkscape:vp_z="744.09448 : 526.18109 : 1"
       inkscape:persp3d-origin="372.04724 : 350.78739 : 1"
       id="perspective2750" />
    <linearGradient
       inkscape:collect="always"
       xlink:href="#linearGradient7639"
       id="linearGradient7645"
       x1="13.918169"
       y1="12"
       x2="36.834165"
       y2="12"
       gradientUnits="userSpaceOnUse" />
    <filter
       inkscape:collect="always"
       id="filter3177"
       x="-0.086495432"
       width="1.1729909"
       y="-0.19587248"
       height="1.391745">
      <feGaussianBlur
         inkscape:collect="always"
         stdDeviation="0.81613532"
         id="feGaussianBlur3179" />
    </filter>
    <inkscape:perspective
       id="perspective3407"
       inkscape:persp3d-origin="372.04724 : 350.78739 : 1"
       inkscape:vp_z="744.09448 : 526.18109 : 1"
       inkscape:vp_y="0 : 1000 : 0"
       inkscape:vp_x="0 : 526.18109 : 1"
       sodipodi:type="inkscape:persp3d" />
  </defs>
  <sodipodi:namedview
     id="base"
     pagecolor="#ffffff"
     bordercolor="#666666"
     borderopacity="1.0"
     gridtolerance="10000"
     guidetolerance="10"
     objecttolerance="10"
     inkscape:pageopacity="0.0"
     inkscape:pageshadow="2"
     inkscape:zoom="27.223611"
     inkscape:cx="9.8230884"
     inkscape:cy="12.09531"
     inkscape:document-units="px"
     inkscape:current-layer="layer1"
     showgrid="true"
     inkscape:window-width="1920"
     inkscape:window-height="1144"
     inkscape:window-x="-4"
     inkscape:window-y="-4">
    <inkscape:grid
       type="xygrid"
       id="grid2752"
       visible="true"
       enabled="true" />
  </sodipodi:namedview>
  <metadata
     id="metadata2747">
    <rdf:RDF>
      <cc:Work
         rdf:about="">
        <dc:format>image/svg+xml</dc:format>
        <dc:type
           rdf:resource="http://purl.org/dc/dcmitype/StillImage" />
      </cc:Work>
    </rdf:RDF>
  </metadata>
  <g
     inkscape:label="Layer 1"
     inkscape:groupmode="layer"
     id="layer1">
    <path
       id="path7109"
       style="fill:#ffcc00;fill-opacity:1;fill-rule:evenodd;stroke:#ff9c00;stroke-width:1px;stroke-linecap:butt;stroke-linejoin:miter;stroke-opacity:1"
       d="M 21.707792,22.434416 C 23.481948,17.639416 23.491402,13.052208 21.707792,8.9422076 C 15.020633,14.675498 9.9087675,15.174231 2.1363636,8.9422076 C -4.4408921e-16,13 0.67961207,18.844817 2,22.434416 C 9.9250382,16.835523 14.644429,17.171903 21.707792,22.434416 z"
       sodipodi:nodetypes="ccccc" />
    <path
       sodipodi:nodetypes="ccccc"
       d="M 22.227273,17 C 23.436552,13.641219 23.467621,10.135815 22.227273,7 C 15.843685,11.149172 9.8800027,11.755667 1.7207792,7 C 0.026371502,9.4901257 0.33149531,14.441441 1.2207792,17 C 9.4423568,12.530421 15.420887,12.778985 22.227273,17 z"
       style="fill:#ffea93;fill-opacity:1;fill-rule:evenodd;stroke:none;stroke-width:1px;stroke-linecap:butt;stroke-linejoin:miter;stroke-opacity:1;filter:url(#filter3177)"
       id="path3171"
       transform="matrix(1,0,0,0.6,0,8.5922076)" />
    <path
       style="fill:none;fill-rule:evenodd;stroke:#454545;stroke-width:1.49999988000000010;stroke-linecap:round;stroke-linejoin:miter;stroke-miterlimit:4;stroke-dasharray:none;stroke-opacity:1"
       d="M 2.2571296,8 C 0.25712974,13 0.25712974,18 2.2571296,23"
       id="path7623"
       sodipodi:nodetypes="cc" />
    <text
       xml:space="preserve"
       style="font-size:13.06387138px;font-style:normal;font-variant:normal;font-weight:bold;font-stretch:normal;text-align:start;line-height:100%;writing-mode:lr-tb;text-anchor:start;fill:#003366;fill-opacity:1;stroke:none;stroke-width:1px;stroke-linecap:butt;stroke-linejoin:miter;stroke-opacity:1;font-family:Times New Roman;-inkscape-font-specification:Times New Roman Bold"
       x="0.44359145"
       y="6.1493669"
       id="text3181"
       sodipodi:linespacing="100%"
       transform="scale(1.0521153,0.9504662)"><tspan
         sodipodi:role="line"
         id="tspan3185"
         x="0.44359145"
         y="6.1493669">ω</tspan></text>
    <path
       sodipodi:nodetypes="cc"
       id="path3187"
       d="M 21.742869,8 C 23.742869,13 23.742869,18 21.742869,23"
       style="fill:none;fill-rule:evenodd;stroke:#454545;stroke-width:1.49999988000000010;stroke-linecap:round;stroke-linejoin:miter;stroke-miterlimit:4;stroke-dasharray:none;stroke-opacity:1" />
    <rect
       y="8.5"
       x="9.5"
       height="14"
       width="5"
       id="rect3413"
       style="opacity:1;fill:url(#linearGradient3930);fill-opacity:1;fill-rule:nonzero;stroke:#00b4ff;stroke-width:1;stroke-linecap:round;stroke-linejoin:miter;stroke-miterlimit:4;stroke-dasharray:none;stroke-opacity:0.79292932" />
    <text
       transform="scale(1.0521153,0.9504662)"
       sodipodi:linespacing="100%"
       id="text3961"
       y="6.1493669"
       x="12.79184"
       style="font-size:13.06387138px;font-style:normal;font-variant:normal;font-weight:bold;font-stretch:normal;text-align:start;line-height:100%;writing-mode:lr-tb;text-anchor:start;fill:#003366;fill-opacity:1;stroke:none;stroke-width:1px;stroke-linecap:butt;stroke-linejoin:miter;stroke-opacity:1;font-family:Times New Roman;-inkscape-font-specification:Times New Roman Bold"
       xml:space="preserve"><tspan
         y="6.1493669"
         x="12.79184"
         id="tspan3963"
         sodipodi:role="line">ω</tspan></text>
  </g>
</svg>
